src/assets/components/CreatePool/close.svg

<svg fill="none" height="14" viewBox="0 0 14 14" width="14" xmlns="http://www.w3.org/2000/svg"><g fill="#fff"><path d="m3.99522 3.13687c.14532-.11303.35474-.08685.46777.05847l2.53688 3.26171 2.53689-3.26171c.11302-.14532.32245-.1715.46774-.05847.1453.11302.1715.32244.0585.46776l-2.64084 3.39536 2.64084 3.39541c.113.1453.0868.3547-.0585.4677-.14529.113-.35472.0869-.46774-.0585l-2.53689-3.26167-2.53688 3.26167c-.11303.1454-.32245.1715-.46777.0585-.14531-.113-.17149-.3224-.05847-.4677l2.64084-3.39541-2.64084-3.39536c-.11302-.14532-.08684-.35474.05847-.46776z"/><path clip-rule="evenodd" d="m0 7c0-3.86599 3.13401-7 7-7 3.866 0 7 3.134 7 7s-3.134 7-7 7-7-3.134-7-7zm7-6.333333c-3.4978 0-6.333333 2.835533-6.333333 6.333333s2.835533 6.3333 6.333333 6.3333 6.3333-2.8355 6.3333-6.3333-2.8355-6.333333-6.3333-6.333333z" fill-rule="evenodd"/></g></svg>

<svg width="14" height="14" viewBox="0 0 14 14" fill="none" xmlns="http://www.w3.org/2000/svg">
<path d="M3.99522 3.13687C4.14054 3.02384 4.34996 3.05002 4.46299 3.19534L6.99987 6.45705L9.53676 3.19534C9.64978 3.05002 9.85921 3.02384 10.0045 3.13687C10.1498 3.24989 10.176 3.45931 10.063 3.60463L7.42216 6.99999L10.063 10.3954C10.176 10.5407 10.1498 10.7501 10.0045 10.8631C9.85921 10.9761 9.64978 10.95 9.53676 10.8046L6.99987 7.54293L4.46299 10.8046C4.34996 10.95 4.14054 10.9761 3.99522 10.8631C3.84991 10.7501 3.82373 10.5407 3.93675 10.3954L6.57759 6.99999L3.93675 3.60463C3.82373 3.45931 3.84991 3.24989 3.99522 3.13687Z" fill="white"/>
<path fill-rule="evenodd" clip-rule="evenodd" d="M0 7C0 3.13401 3.13401 0 7 0C10.866 0 14 3.134 14 7C14 10.866 10.866 14 7 14C3.134 14 0 10.866 0 7ZM7 0.666667C3.5022 0.666667 0.666667 3.5022 0.666667 7C0.666667 10.4978 3.5022 13.3333 7 13.3333C10.4978 13.3333 13.3333 10.4978 13.3333 7C13.3333 3.5022 10.4978 0.666667 7 0.666667Z" fill="white"/>
</svg>
